X: 3
T: Grand Picnic
I: RJ R-123 D reel
M: C|
R: reel
K: D
|:\
"D"DFAB AFEF | DFAd fedf |\
"G"edBc "Em"dBAB | "A"AFE2 E2FE ||\
"D"DFAB AFEF | DFAd fedf |
"G"edBc "Em"dcdB |1 "A"AFE2 "D"D2FE :|2 "A"AFE2 "D"D2de \
|:\
"D" fefg a2a2 | fefg a2fa |
"G"g2ge "D"fedf | "Em"edef "A"edB2 ||\
"D"dcdA BAFE | DFAd fedf |\
"G"edBc "Em"dcdB | "A"AFE2 "D"D4 :|
% text 08/29/98

